svgs/sharp-regular/mask-face.svg

<svg xmlns="http://www.w3.org/2000/svg" viewBox="0 0 640 512"><!--! Font Awesome Pro 6.6.0 by @fontawesome - https://fontawesome.com License - https://fontawesome.com/license (Commercial License) Copyright 2024 Fonticons, Inc. --><path d="M196.8 176l12.1-8.1L292.8 112l54.3 0 83.9 55.9 12.1 8.1 14.5 0 38.3 0 0 48c0 59.5-29.5 112.1-74.7 143.9l-3.1 .8 .3 1.2c-28.1 19-62 30.1-98.5 30.1s-70.4-11.1-98.5-30.1l.3-1.2-3.1-.8C173.5 336.1 144 283.5 144 224l0-48 38.3 0 14.5 0zM96 224c0 45.1 13.4 87.2 36.3 122.3L48 325.3 48 176l48 0 0 48zM18.2 367.3l180.7 45.2C233.8 435 275.4 448 320 448s86.2-13 121.1-35.5l180.7-45.2 18.2-4.5 0-18.7 0-192 0-24-24 0-72 0-32 0-16 0-38.3 0L369.8 69.4 361.7 64 352 64l-64 0-9.7 0-8.1 5.4L182.3 128 144 128l-16 0-32 0-72 0L0 128l0 24L0 344l0 18.7 18.2 4.5zm573.8-42l-84.3 21.1c23-35.2 36.3-77.2 36.3-122.3l0-48 48 0 0 149.3zM208 192l-16 0 0 32 16 0 224 0 16 0 0-32-16 0-224 0zm-16 64l0 32 16 0 224 0 16 0 0-32-16 0-224 0-16 0zm48 64l-16 0 0 32 16 0 160 0 16 0 0-32-16 0-160 0z"/></svg>

<svg xmlns="http://www.w3.org/2000/svg" viewBox="0 0 640 512"><!--! Font Awesome Pro 6.4.2 by @fontawesome - https://fontawesome.com License - https://fontawesome.com/license (Commercial License) Copyright 2023 Fonticons, Inc. --><path d="M196.8 176l12.1-8.1L292.8 112h54.3l83.9 55.9 12.1 8.1h14.5H496v48c0 59.5-29.5 112.1-74.7 143.9l-3.1 .8 .3 1.2c-28.1 19-62 30.1-98.5 30.1s-70.4-11.1-98.5-30.1l.3-1.2-3.1-.8C173.5 336.1 144 283.5 144 224V176h38.3 14.5zM96 224c0 45.1 13.4 87.2 36.3 122.3L48 325.3V176H96v48zM18.2 367.3l180.7 45.2C233.8 435 275.4 448 320 448s86.2-13 121.1-35.5l180.7-45.2 18.2-4.5V344 152 128H616 544 512 496 457.7L369.8 69.4 361.7 64H352 288h-9.7l-8.1 5.4L182.3 128H144 128 96 24 0v24V344v18.7l18.2 4.5zm573.8-42l-84.3 21.1c23-35.2 36.3-77.2 36.3-122.3V176h48V325.3zM208 192H192v32h16H432h16V192H432 208zm-16 64v32h16H432h16V256H432 208 192zm48 64H224v32h16H400h16V320H400 240z"/></svg>
